svg/l/SX.svg

<svg width="32" height="24" viewBox="0 0 32 24" fill="none" xmlns="http://www.w3.org/2000/svg">
<mask id="mask0" mask-type="alpha" maskUnits="userSpaceOnUse" x="0" y="0" width="32" height="24">
<rect width="32" height="24" fill="white"/>
</mask>
<g mask="url(#mask0)">
<path fill-rule="evenodd" clip-rule="evenodd" d="M0 0V24H32V0H0Z" fill="#E31D1C"/>
<mask id="mask1" mask-type="alpha" maskUnits="userSpaceOnUse" x="0" y="0" width="32" height="24">
<path fill-rule="evenodd" clip-rule="evenodd" d="M0 0V24H32V0H0Z" fill="white"/>
</mask>
<g mask="url(#mask1)">
<path fill-rule="evenodd" clip-rule="evenodd" d="M0 12V24H32V12H0Z" fill="#2E42A5"/>
</g>
<path fill-rule="evenodd" clip-rule="evenodd" d="M0 -2V26L20 12L0 -2Z" fill="#F7FCFF"/>
<mask id="mask2" mask-type="alpha" maskUnits="userSpaceOnUse" x="0" y="-2" width="20" height="28">
<path fill-rule="evenodd" clip-rule="evenodd" d="M0 -2V26L20 12L0 -2Z" fill="white"/>
</mask>
<g mask="url(#mask2)">
<path fill-rule="evenodd" clip-rule="evenodd" d="M8.12581 10.1888C9.56253 10.1888 10.7272 9.25111 10.7272 8.09441C10.7272 6.9377 9.56253 6 8.12581 6C6.6891 6 5.52441 6.9377 5.52441 8.09441C5.52441 9.25111 6.6891 10.1888 8.12581 10.1888Z" fill="#FBCD17"/>
<path fill-rule="evenodd" clip-rule="evenodd" d="M8.35341 6.38525C8.14104 6.38525 7.99015 6.52207 7.99015 6.728L7.99034 6.75071C7.97893 6.78503 7.97253 6.82328 7.97138 6.86609C7.96843 6.97565 8.00923 7.06704 8.09485 7.15086C8.10012 7.17506 8.10286 7.19511 8.10208 7.20648C8.09688 7.18861 8.07621 7.17363 8.03686 7.1451C7.98091 7.10453 7.88718 7.03658 7.74644 6.89402C7.54372 6.68869 7.39074 6.60832 7.20058 6.64025C7.14292 6.64994 7.08649 6.67025 7.01873 6.69738C6.91071 6.73629 6.81127 6.74531 6.62766 6.71027C6.11746 6.61288 5.55785 6.70844 4.95203 6.98917L5.16225 7.44283C5.6793 7.20323 6.13546 7.12534 6.53392 7.2014C6.80764 7.25365 6.9977 7.23639 7.18814 7.16781C7.27019 7.13694 7.27737 7.13436 7.28339 7.13335C7.27735 7.13436 7.28122 7.13808 7.30658 7.16245C7.32366 7.17887 7.3505 7.20466 7.39062 7.2453C7.44777 7.30318 7.50751 7.35559 7.56853 7.40325C7.45125 7.43476 7.45731 7.4564 7.47884 7.53315C7.48761 7.56443 7.49895 7.60486 7.50555 7.65884C7.52013 7.77801 7.49591 7.83947 7.51681 7.8689C7.54012 7.90174 7.61959 7.89471 7.87176 7.88347C7.93963 7.88044 8.03143 7.87343 8.13735 7.86341C8.34507 7.84377 8.58016 7.81514 8.72462 7.79146C8.86494 7.76845 8.90224 7.76006 8.96109 7.71723L8.9611 7.71721C8.98145 7.69226 8.99885 7.67092 9.01328 7.65191C9.49311 7.58141 9.91978 7.53133 10.2995 7.49677C10.4356 7.48439 10.545 7.47589 10.6509 7.46811C10.6634 7.468 10.6634 7.468 10.725 7.45513L10.725 7.45513C10.7519 7.44368 10.763 7.43895 10.7668 7.43738L10.7667 7.43748C10.7684 7.43671 10.7694 7.43626 10.7668 7.43738L10.8893 7.14709L10.7627 6.99398C10.6873 6.97027 10.679 6.96765 10.6705 6.96728C10.6695 6.96724 10.6684 6.96723 10.6672 6.96722C10.6574 6.96663 10.6538 6.96642 10.6501 6.96631C10.6481 6.96624 10.646 6.96621 10.6428 6.96615C10.6287 6.96607 10.6196 6.96601 10.6105 6.96598C10.5935 6.96592 10.5766 6.96594 10.5281 6.966C10.4451 6.966 10.3795 6.95898 10.2847 6.94213L10.1965 6.92592C9.80673 6.85441 9.44518 6.85441 8.67839 6.96874C8.66395 6.95755 8.64958 6.94653 8.63555 6.936C8.75904 6.91453 8.90943 6.89997 9.06836 6.89149L9.06837 6.89149C9.16444 6.88702 9.16445 6.88702 9.21809 6.88559L9.24155 6.88504L9.23862 6.38529L9.20069 6.38525H8.35341ZM7.93924 7.83278C7.95383 7.82965 7.96977 7.82634 7.98705 7.82285L8.03415 7.8128C8.02552 7.81463 8.01595 7.81663 8.00538 7.81883C7.98663 7.82274 7.96472 7.82731 7.93924 7.83278Z" fill="#DA610A"/>
<path d="M7.92501 8.5807L8.0059 8.59397L8.0868 8.5807C9.07982 8.4179 9.7337 8.4369 10.1126 8.56398C10.549 8.71037 11.0314 8.66893 11.5388 8.49808C11.3777 9.21585 11.2953 9.89425 11.2953 10.5318C11.2953 11.2586 11.4359 11.8458 11.5635 12.3609C11.5669 12.3747 11.5703 12.3885 11.5737 12.4022C11.6987 12.9066 11.8023 13.3247 11.8023 13.8044C11.8023 14.235 11.6595 14.4612 11.4599 14.6025C11.2287 14.7662 10.8432 14.8704 10.2716 14.8704C9.46555 14.8704 8.71152 15.0875 8.01723 15.5122L8.0059 15.504L7.99457 15.5122C7.30028 15.0875 6.54625 14.8704 5.74023 14.8704C5.16856 14.8704 4.78307 14.7662 4.55193 14.6025C4.3523 14.4612 4.20947 14.235 4.20947 13.8044C4.20947 13.3247 4.31308 12.9066 4.4381 12.4022C4.44149 12.3885 4.4449 12.3747 4.44833 12.3609C4.57591 11.8458 4.71651 11.2586 4.71651 10.5318C4.71651 9.89425 4.63407 9.21585 4.47305 8.49808C4.98036 8.66893 5.4628 8.71037 5.89924 8.56398C6.2781 8.4369 6.93198 8.4179 7.92501 8.5807Z" fill="#56C6F5" stroke="#E31D1C"/>
<path fill-rule="evenodd" clip-rule="evenodd" d="M8.78485 10.6242L8.01342 9.93848L7.24199 10.6242H7.47056V11.0195L6.27056 11.767V13.5956H6.04199V13.9385H6.27056H9.75628H10.042V13.5956H9.75628V11.767L8.49914 10.9839V10.6242H8.78485Z" fill="#F7FCFF"/>
<path d="M8.01342 9.93848L8.09647 9.84505L8.01342 9.77123L7.93038 9.84505L8.01342 9.93848ZM8.78485 10.6242V10.7492H9.11362L8.86789 10.5308L8.78485 10.6242ZM7.24199 10.6242L7.15895 10.5308L6.91322 10.7492H7.24199V10.6242ZM7.47056 10.6242H7.59556V10.4992H7.47056V10.6242ZM7.47056 11.0195L7.53666 11.1256L7.59556 11.0889V11.0195H7.47056ZM6.27056 11.767L6.20447 11.661L6.14556 11.6976V11.767H6.27056ZM6.27056 13.5956V13.7206H6.39556V13.5956H6.27056ZM6.04199 13.5956V13.4706H5.91699V13.5956H6.04199ZM6.04199 13.9385H5.91699V14.0635H6.04199V13.9385ZM10.042 13.9385V14.0635H10.167V13.9385H10.042ZM10.042 13.5956H10.167V13.4706H10.042V13.5956ZM9.75628 13.5956H9.63128V13.7206H9.75628V13.5956ZM9.75628 11.767H9.88128V11.6976L9.82237 11.661L9.75628 11.767ZM8.49914 10.9839H8.37414V11.0533L8.43304 11.09L8.49914 10.9839ZM8.49914 10.6242V10.4992H8.37414V10.6242H8.49914ZM7.93038 10.0319L8.7018 10.7176L8.86789 10.5308L8.09647 9.84505L7.93038 10.0319ZM7.32504 10.7176L8.09647 10.0319L7.93038 9.84505L7.15895 10.5308L7.32504 10.7176ZM7.47056 10.4992H7.24199V10.7492H7.47056V10.4992ZM7.34556 10.6242V11.0195H7.59556V10.6242H7.34556ZM7.40447 10.9134L6.20447 11.661L6.33666 11.8731L7.53666 11.1256L7.40447 10.9134ZM6.14556 11.767V13.5956H6.39556V11.767H6.14556ZM6.27056 13.4706H6.04199V13.7206H6.27056V13.4706ZM5.91699 13.5956V13.9385H6.16699V13.5956H5.91699ZM6.04199 14.0635H6.27056V13.8135H6.04199V14.0635ZM6.27056 14.0635H9.75628V13.8135H6.27056V14.0635ZM9.75628 14.0635H10.042V13.8135H9.75628V14.0635ZM10.167 13.9385V13.5956H9.91699V13.9385H10.167ZM10.042 13.4706H9.75628V13.7206H10.042V13.4706ZM9.88128 13.5956V11.767H9.63128V13.5956H9.88128ZM9.82237 11.661L8.56523 10.8778L8.43304 11.09L9.69018 11.8731L9.82237 11.661ZM8.62414 10.9839V10.6242H8.37414V10.9839H8.62414ZM8.78485 10.4992H8.49914V10.7492H8.78485V10.4992Z" fill="#3B3B3B"/>
<path d="M7.95191 17.0204C9.01295 17.0204 9.7434 16.9046 10.1195 16.7071C10.2181 16.5395 10.3911 16.4448 10.5751 16.4516C11.4016 16.4822 12.0416 16.134 12.5448 15.3688C13.0885 14.542 13.1978 13.3675 12.8434 11.8259L13.743 11.6191C14.149 13.3855 14.0164 14.8109 13.3161 15.876C12.6885 16.8303 11.8329 17.3401 10.7886 17.3747C10.2552 17.7696 9.32055 17.9435 7.95191 17.9435C6.62785 17.9435 5.64614 17.6864 5.0165 17.1402C3.58662 16.8024 2.67796 16.2321 2.32067 15.3867C1.9398 14.4856 1.9398 13.2346 2.29508 11.6232L3.19651 11.8219C2.87863 13.2638 2.87863 14.3358 3.17092 15.0274C3.37489 15.5099 3.96753 15.9038 4.97156 16.1768L5.90438 16.3763L5.85959 16.6118C6.31466 16.8778 7.01015 17.0204 7.95191 17.0204Z" fill="#FBCD17"/>
<path fill-rule="evenodd" clip-rule="evenodd" d="M4.76673 9.17631C4.66367 9.4325 4.7878 9.72373 5.04399 9.8268L5.05987 9.83319L5.03569 9.88345C4.86048 10.2477 5.16032 10.6236 5.51415 10.6014L5.50263 10.658C5.39998 11.1623 5.9819 11.4143 6.30369 11.1578C6.50931 11.1527 6.71145 11.0297 6.77221 10.7726L6.82904 10.5321L6.85198 10.539C7.32354 10.6812 7.64252 10.1611 7.43447 9.80958C7.4973 9.6953 7.51564 9.5567 7.47441 9.42216C7.39351 9.15813 7.1139 9.00968 6.84987 9.09058L6.33397 9.24865C6.26519 9.22936 6.19145 9.22466 6.11707 9.23784C6.06723 9.18121 6.00366 9.13498 5.92857 9.10477L5.41722 8.89906C5.16103 8.79599 4.8698 8.92012 4.76673 9.17631ZM6.82904 10.5321L6.95125 10.015L6.32028 10.3787L6.82904 10.5321Z" fill="#73BE4A"/>
<path fill-rule="evenodd" clip-rule="evenodd" d="M6.20544 10.4758C6.48159 10.4758 6.70544 10.252 6.70544 9.97583C6.70544 9.69969 6.48159 9.47583 6.20544 9.47583C5.9293 9.47583 5.70544 9.69969 5.70544 9.97583C5.70544 10.252 5.9293 10.4758 6.20544 10.4758Z" fill="#FBCD17"/>
<path fill-rule="evenodd" clip-rule="evenodd" d="M10.2411 10.0733C10.2329 9.73704 10.1955 8.96924 10.0249 8.96924C9.85329 8.96924 9.82718 9.74605 9.82388 10.0792C9.52844 10.1757 9.30603 10.43 9.30603 10.43H10.7776C10.7776 10.43 10.5458 10.165 10.2411 10.0733Z" fill="#F7FCFF"/>
<path d="M2.55045 12.5686L2.79675 12.6115C2.59738 13.7575 2.59738 14.5793 2.78995 15.0694C3.01408 15.6398 4.33634 16.4051 4.7104 16.4051V16.6551C4.23996 16.6551 2.82192 15.8344 2.55726 15.1608C2.34388 14.6177 2.34388 13.7561 2.55045 12.5686Z" fill="#73BE4A"/>
<path d="M13.3811 12.5088L13.1346 12.5502C13.315 13.6255 13.2746 14.4645 13.0182 15.066C12.7093 15.791 11.516 16.7148 11.2031 16.7148V16.9648C11.6243 16.9648 12.9025 15.9753 13.2482 15.164C13.5261 14.5119 13.5688 13.6271 13.3811 12.5088Z" fill="#73BE4A"/>
<path d="M6.39307 17.424L6.44016 17.1785C7.23674 17.3313 7.7809 17.4076 8.06599 17.4076C8.35048 17.4076 8.86519 17.3314 9.604 17.1788L9.65457 17.4236C8.8999 17.5795 8.37241 17.6576 8.06599 17.6576C7.76017 17.6576 7.20474 17.5797 6.39307 17.424Z" fill="#73BE4A"/>
</g>
</g>
</svg>

<svg width="32" height="24" fill="none" xmlns="http://www.w3.org/2000/svg">
  <mask id="a" maskUnits="userSpaceOnUse" x="0" y="0" width="32" height="24">
    <path fill="#fff" d="M0 0h32v24H0z"/>
  </mask>
  <g mask="url(#a)">
    <path fill-rule="evenodd" clip-rule="evenodd" d="M0 0v24h32V0H0z" fill="#E31D1C"/>
    <mask id="b" maskUnits="userSpaceOnUse" x="0" y="0" width="32" height="24">
      <path fill-rule="evenodd" clip-rule="evenodd" d="M0 0v24h32V0H0z" fill="#fff"/>
    </mask>
    <g mask="url(#b)">
      <path fill-rule="evenodd" clip-rule="evenodd" d="M0 12v12h32V12H0z" fill="#2E42A5"/>
    </g>
    <path fill-rule="evenodd" clip-rule="evenodd" d="M0-2v28l20-14L0-2z" fill="#F7FCFF"/>
    <mask id="c" maskUnits="userSpaceOnUse" x="0" y="-2" width="20" height="28">
      <path fill-rule="evenodd" clip-rule="evenodd" d="M0-2v28l20-14L0-2z" fill="#fff"/>
    </mask>
    <g mask="url(#c)">
      <path fill-rule="evenodd" clip-rule="evenodd" d="M8.126 10.189c1.437 0 2.601-.938 2.601-2.095C10.727 6.938 9.563 6 8.126 6s-2.602.938-2.602 2.094c0 1.157 1.165 2.095 2.602 2.095z" fill="#FBCD17"/>
      <path fill-rule="evenodd" clip-rule="evenodd" d="M8.353 6.385c-.212 0-.363.137-.363.343v.023a.398.398 0 00-.019.115.367.367 0 00.124.285.234.234 0 01.007.056c-.005-.018-.026-.033-.065-.062a2.044 2.044 0 01-.29-.25c-.203-.206-.356-.287-.546-.255a.888.888 0 00-.182.057c-.108.04-.208.048-.391.013-.51-.097-1.07-.002-1.676.28l.21.453c.517-.24.973-.318 1.372-.242.274.053.464.035.654-.033a.981.981 0 01.095-.035c-.006.001-.002.005.024.03l.084.082c.057.058.117.11.178.158-.118.032-.112.053-.09.13.009.031.02.072.027.126.014.12-.01.18.01.21.024.033.104.026.356.015a9.918 9.918 0 00.853-.092c.14-.023.177-.032.236-.075l.052-.065a23.522 23.522 0 011.638-.184c.012 0 .012 0 .074-.013l.042-.018c.001 0 .002 0 0 0l.122-.29-.126-.153a.72.72 0 00-.092-.027h-.028a15.5 15.5 0 00-.115 0c-.083 0-.149-.008-.243-.025l-.088-.016c-.39-.072-.752-.072-1.519.043a3.622 3.622 0 00-.042-.033 3.78 3.78 0 01.432-.044c.096-.005.096-.005.15-.006h.024l-.003-.5h-.886zM7.94 7.833l.048-.01.047-.01a8.018 8.018 0 01-.095.02z" fill="#DA610A"/>
      <path d="M7.925 8.58l.08.014.082-.013c.993-.163 1.647-.144 2.026-.017.436.146.918.105 1.426-.066a9.313 9.313 0 00-.244 2.034c0 .727.14 1.314.268 1.829l.01.041c.126.505.23.923.23 1.402 0 .431-.144.657-.343.799-.231.163-.617.268-1.188.268-.806 0-1.56.217-2.255.641l-.011-.008-.011.008a4.254 4.254 0 00-2.255-.642c-.571 0-.957-.104-1.188-.267-.2-.142-.343-.368-.343-.799 0-.48.104-.897.23-1.402.002-.013.006-.027.01-.041.127-.515.268-1.102.268-1.83a9.32 9.32 0 00-.244-2.033c.507.171.99.212 1.426.066.38-.127 1.033-.146 2.026.017z" fill="#56C6F5" stroke="#E31D1C"/>
      <path fill-rule="evenodd" clip-rule="evenodd" d="M8.785 10.624l-.772-.686-.771.686h.229v.396l-1.2.747v1.829h-.229v.342h4v-.342h-.286v-1.829L8.5 10.984v-.36h.286z" fill="#F7FCFF"/>
      <path d="M8.013 9.938l.083-.093-.083-.074-.083.074.083.093zm.772.686v.125h.329l-.246-.218-.083.093zm-1.543 0l-.083-.093-.246.218h.329v-.125zm.229 0h.125V10.5H7.47v.125zm0 .396l.066.106.059-.037v-.07H7.47zm-1.2.747l-.067-.106-.058.037v.069h.125zm0 1.829v.125h.125v-.125H6.27zm-.229 0v-.125h-.125v.125h.125zm0 .342h-.125v.125h.125v-.125zm4 0v.125h.125v-.125h-.125zm0-.342h.125v-.125h-.125v.125zm-.286 0h-.125v.125h.125v-.125zm0-1.829h.125v-.07l-.059-.036-.066.106zM8.5 10.984h-.125v.07l.059.036.066-.106zm0-.36V10.5h-.125v.125H8.5zm-.569-.592l.772.686.166-.187-.772-.686-.166.187zm-.605.686l.771-.686-.166-.187-.771.686.166.187zm.146-.219h-.229v.25h.229v-.25zm-.125.125v.396h.25v-.396h-.25zm.058.29l-1.2.747.133.212 1.2-.747-.133-.213zm-1.258.853v1.829h.25v-1.829h-.25zm.125 1.704h-.229v.25h.229v-.25zm-.354.125v.342h.25v-.342h-.25zm.125.467h.229v-.25h-.229v.25zm.229 0h3.485v-.25H6.271v.25zm3.485 0h.286v-.25h-.286v.25zm.411-.125v-.342h-.25v.342h.25zm-.125-.467h-.286v.25h.286v-.25zm-.16.125v-1.829h-.25v1.829h.25zm-.06-1.935l-1.257-.783-.132.212 1.257.783.132-.212zm-1.198-.677v-.36h-.25v.36h.25zm.16-.485H8.5v.25h.286v-.25z" fill="#3B3B3B"/>
      <path d="M7.952 17.02c1.061 0 1.791-.116 2.168-.313a.505.505 0 01.455-.255c.827.03 1.467-.318 1.97-1.083.543-.827.653-2.002.298-3.543l.9-.207c.406 1.766.273 3.192-.427 4.257-.628.954-1.483 1.464-2.527 1.499-.534.395-1.468.568-2.837.568-1.324 0-2.306-.257-2.936-.803-1.43-.338-2.338-.908-2.695-1.753-.381-.902-.381-2.152-.026-3.764l.902.199c-.318 1.442-.318 2.514-.026 3.205.204.483.797.877 1.8 1.15l.933.2-.044.235c.455.266 1.15.408 2.092.408z" fill="#FBCD17"/>
      <path fill-rule="evenodd" clip-rule="evenodd" d="M4.767 9.176a.5.5 0 00.277.65l.016.007-.024.05a.502.502 0 00.478.718l-.011.057c-.103.504.479.756.8.5a.48.48 0 00.47-.385l.056-.241.023.007c.472.142.79-.378.582-.73a.499.499 0 00-.584-.719l-.516.159a.487.487 0 00-.217-.011.498.498 0 00-.188-.133l-.512-.206a.5.5 0 00-.65.277zm2.062 1.356l.122-.517-.63.364.508.153z" fill="#73BE4A"/>
      <path fill-rule="evenodd" clip-rule="evenodd" d="M6.205 10.476a.5.5 0 100-1 .5.5 0 000 1z" fill="#FBCD17"/>
      <path fill-rule="evenodd" clip-rule="evenodd" d="M10.241 10.073c-.008-.336-.046-1.104-.216-1.104-.172 0-.198.777-.201 1.11a1.347 1.347 0 00-.518.351h1.472s-.232-.265-.537-.357z" fill="#F7FCFF"/>
      <path d="M2.55 12.569l.247.042c-.2 1.146-.2 1.968-.007 2.458.224.57 1.546 1.336 1.92 1.336v.25c-.47 0-1.888-.82-2.153-1.494-.213-.543-.213-1.405-.007-2.592zm10.831-.06l-.246.041c.18 1.075.14 1.914-.117 2.516-.309.725-1.502 1.649-1.815 1.649v.25c.421 0 1.7-.99 2.045-1.801.278-.652.32-1.537.133-2.655zm-6.988 4.915l.047-.246c.797.153 1.34.23 1.626.23.284 0 .8-.077 1.538-.23l.05.245c-.754.156-1.282.235-1.588.235-.306 0-.861-.078-1.673-.234z" fill="#73BE4A"/>
    </g>
  </g>
</svg>
